src/assets/images/logo_min.svg

<svg width="182" height="30" viewBox="0 0 182 30" fill="none" xmlns="http://www.w3.org/2000/svg">
<path d="M15.5513 8.63415H15.355L13.9323 12.3625L11.5285 18.4457C11.3323 18.9362 11.1361 19.2306 10.9398 19.3778C10.7436 19.5249 10.4493 19.623 9.95868 19.623H8.73224C8.29072 19.623 7.94732 19.5249 7.75109 19.3778C7.55486 19.2306 7.35864 18.8872 7.21147 18.3966L4.80763 12.5588L3.33591 8.87944H3.18874V21.291C3.18874 21.5363 3.13969 21.7325 3.04157 21.7816C2.94346 21.8306 2.79628 21.8797 2.551 21.8797H0.588693C0.392463 21.8797 0.245278 21.8306 0.147163 21.7816C0.0490478 21.7325 -3.8147e-06 21.5363 -3.8147e-06 21.291V4.21897C-3.8147e-06 3.63028 0.0981173 3.23781 0.343405 2.94347C0.539636 2.64912 0.981142 2.50195 1.61889 2.50195H2.74722C3.2378 2.50195 3.58119 2.60007 3.82648 2.74724C4.07177 2.89441 4.26801 3.23782 4.46424 3.72839L7.70204 11.8229L9.37 16.0909H9.4681L11.1361 11.7738L14.3739 3.72839C14.5701 3.23782 14.8154 2.89441 15.0607 2.74724C15.306 2.60007 15.6984 2.50195 16.1399 2.50195H17.1701C17.7588 2.50195 18.1513 2.64913 18.3966 2.89442C18.6419 3.1397 18.74 3.58122 18.74 4.12085V21.2419C18.74 21.4872 18.6909 21.6835 18.5928 21.7325C18.4947 21.7816 18.3475 21.8306 18.1022 21.8306H16.189C15.9928 21.8306 15.8456 21.7816 15.7475 21.7325C15.6494 21.6835 15.6003 21.4872 15.6003 21.2419L15.5513 8.63415Z" fill="black"/>
<path d="M28.5025 9.81145C28.0119 9.81145 27.5704 9.90957 27.1779 10.1058C26.7854 10.302 26.4911 10.5473 26.1967 10.8907C25.9024 11.2341 25.7062 11.5775 25.559 12.019C25.4118 12.4606 25.3137 12.9021 25.2647 13.3436H31.544C31.544 12.853 31.495 12.4115 31.3969 11.97C31.2987 11.5285 31.1516 11.1851 30.9063 10.8417C30.661 10.4983 30.3666 10.253 29.9742 10.1058C29.6308 9.90957 29.1402 9.81145 28.5025 9.81145ZM28.4534 7.11328C30.5629 7.11328 32.0837 7.65292 33.1139 8.73218C34.095 9.81145 34.6347 11.2832 34.6347 13.1964C34.6347 13.687 34.5856 14.0795 34.4875 14.3738C34.3894 14.6681 34.2422 14.9625 34.046 15.1097C33.8497 15.3059 33.6044 15.404 33.3592 15.5021C33.1139 15.6002 32.8195 15.6002 32.4761 15.6002H25.2156C25.2156 16.2871 25.3628 16.9248 25.559 17.4154C25.7552 17.9059 26.0496 18.2984 26.393 18.5928C26.7364 18.8871 27.1289 19.1324 27.5704 19.2305C28.0119 19.3777 28.5025 19.4267 29.0421 19.4267C29.6308 19.4267 30.1704 19.3777 30.7591 19.2305C31.2987 19.0833 31.7893 18.8871 32.2308 18.6909C32.5252 18.5437 32.7214 18.5928 32.8195 18.838L33.5554 20.4079C33.7026 20.7022 33.6044 20.8985 33.3592 21.0456C32.6724 21.4872 31.9365 21.7815 31.1025 21.9287C30.2685 22.0758 29.4836 22.174 28.7477 22.174C26.5402 22.174 24.8722 21.5853 23.6948 20.3588C22.5174 19.1814 21.9778 17.2682 21.9778 14.6682C21.9778 13.4417 22.125 12.3624 22.4684 11.4303C22.8118 10.4983 23.2533 9.66428 23.7929 9.02653C24.3816 8.38878 25.0684 7.84915 25.8534 7.5548C26.6383 7.30952 27.5213 7.11328 28.4534 7.11328Z" fill="black"/>
<path d="M40.2763 14.9133C40.2763 16.5813 40.6197 17.8077 41.2574 18.4945C41.8952 19.1813 42.8273 19.5247 44.0046 19.5247C44.3971 19.5247 44.8386 19.4757 45.3292 19.4266C45.8688 19.3285 46.2613 19.2304 46.5556 19.1323V10.2528C46.016 10.1057 45.5254 10.0076 45.0839 9.95849C44.6914 9.90944 44.299 9.90944 43.9065 9.90944C42.8273 9.90944 41.9442 10.3019 41.2574 11.0868C40.6197 11.8227 40.2763 13.0982 40.2763 14.9133ZM36.9403 14.9133C36.9403 13.8831 37.0875 12.902 37.3328 11.9699C37.5781 11.0378 37.9706 10.2038 38.5102 9.51698C39.0498 8.83017 39.7366 8.24148 40.5706 7.79996C41.4046 7.35845 42.4348 7.16221 43.6122 7.16221C43.9556 7.16221 44.3971 7.16222 44.8877 7.21127C45.3782 7.26033 45.9179 7.35844 46.5066 7.50562V2.30552C46.5066 2.10929 46.5556 1.96211 46.6537 1.91306C46.7519 1.864 46.899 1.81494 47.0953 1.81494H49.2047C49.401 1.81494 49.4991 1.864 49.5972 1.91306C49.6953 1.96211 49.6953 2.10929 49.6953 2.30552V20.604C49.6953 20.9474 49.45 21.2417 48.9104 21.438C48.3708 21.6833 47.7821 21.8304 47.0953 21.9285C46.4085 22.0267 45.7216 22.1248 45.0348 22.1738C44.348 22.2229 43.8575 22.2229 43.5631 22.2229C42.3367 22.2229 41.3065 22.0267 40.4725 21.6833C39.6385 21.3399 38.9517 20.8493 38.4611 20.2115C37.9215 19.5738 37.5781 18.7889 37.3328 17.9058C37.0875 17.0228 36.9403 15.9926 36.9403 14.9133Z" fill="black"/>
<path d="M58.0351 14.8642H63.2843L61.8616 10.2038L60.7333 6.27915H60.5861L59.4578 10.1056L58.0351 14.8642ZM64.1183 17.7096H57.2011L56.0238 21.4379C55.9747 21.5851 55.8766 21.7323 55.7785 21.7813C55.6804 21.8795 55.5332 21.8795 55.2879 21.8795H52.786C52.5897 21.8795 52.4425 21.8304 52.3935 21.6832C52.3444 21.5851 52.3444 21.4379 52.3935 21.2908L58.2804 3.82627C58.3785 3.53193 58.4766 3.3357 58.5747 3.18852C58.6729 3.04135 58.771 2.89418 58.9181 2.79607C59.0653 2.69795 59.2125 2.64889 59.4087 2.59983C59.605 2.55078 59.8012 2.55078 60.0465 2.55078H61.2238C61.7635 2.55078 62.205 2.6489 62.4012 2.79607C62.6465 2.9923 62.8428 3.3357 63.039 3.87533L68.9259 21.3398C68.9749 21.487 68.9749 21.6342 68.9259 21.7323C68.8768 21.8304 68.7787 21.9285 68.5825 21.9285H66.0806C65.8843 21.9285 65.7372 21.8795 65.59 21.8304C65.4919 21.7813 65.3937 21.6832 65.2956 21.487L64.1183 17.7096Z" fill="black"/>
<path d="M81.2884 14.668C81.2884 13.0491 80.994 11.8227 80.3563 11.0378C79.7186 10.2528 78.8846 9.86038 77.8053 9.86038C77.511 9.86038 77.1185 9.90944 76.5789 9.95849C76.0392 10.0076 75.4996 10.1547 74.9109 10.3019V19.1323C75.3524 19.2794 75.794 19.3776 76.2845 19.4266C76.7751 19.4757 77.1676 19.4757 77.56 19.4757C78.0997 19.4757 78.6393 19.3776 79.0808 19.2304C79.5223 19.0342 79.9148 18.7889 80.2582 18.3964C80.6016 18.0039 80.8469 17.5134 81.0431 16.9247C81.2393 16.2869 81.2884 15.5511 81.2884 14.668ZM84.5753 14.5209C84.5753 15.6492 84.4281 16.6303 84.1828 17.5624C83.9375 18.4945 83.496 19.3285 82.9564 20.0153C82.4167 20.7021 81.6809 21.2417 80.7978 21.6342C79.9148 22.0267 78.8846 22.2229 77.7072 22.2229C76.7751 22.2229 75.843 22.1248 74.8619 22.0267C73.8807 21.8795 72.9977 21.6342 72.1637 21.2417C72.0165 21.1436 71.8693 21.0946 71.8203 20.9964C71.7712 20.8983 71.7222 20.7512 71.7222 20.604V2.30552C71.7222 2.10929 71.7712 1.96211 71.8693 1.91306C71.9675 1.864 72.1146 1.81494 72.3109 1.81494H74.4694C74.6656 1.81494 74.8128 1.864 74.8619 1.91306C74.96 1.96211 74.96 2.10928 74.96 2.35457L75.009 7.7509C75.5487 7.60373 76.0883 7.45656 76.726 7.35844C77.3638 7.26033 77.9034 7.26033 78.394 7.26033C79.4733 7.26033 80.4054 7.45656 81.1903 7.79996C81.9752 8.14337 82.613 8.683 83.1035 9.32074C83.5941 10.0076 83.9866 10.7925 84.2319 11.6755C84.4771 12.4604 84.5753 13.4906 84.5753 14.5209Z" fill="black"/>
<path d="M96.9868 14.7175C96.9868 14.0307 96.9378 13.442 96.8397 12.8533C96.7415 12.2646 96.5453 11.7249 96.3 11.2834C96.0547 10.8419 95.7113 10.4985 95.3189 10.2042C94.8774 9.95888 94.3377 9.8117 93.7 9.8117C93.1113 9.8117 92.6207 9.95888 92.1792 10.2042C91.7377 10.4495 91.3943 10.7929 91.0999 11.2344C90.8056 11.6759 90.6094 12.1665 90.4622 12.7552C90.315 13.3438 90.266 13.9816 90.266 14.6684C90.266 16.1892 90.5112 17.4156 91.0018 18.2987C91.4924 19.1817 92.3754 19.6232 93.6019 19.6232C94.2396 19.6232 94.7793 19.4761 95.2208 19.2308C95.6623 18.9855 96.0057 18.593 96.251 18.1515C96.4963 17.71 96.6925 17.1703 96.8397 16.6307C96.9378 15.993 96.9868 15.3552 96.9868 14.7175ZM100.225 14.6193C100.225 17.0722 99.685 18.9364 98.5567 20.261C97.4284 21.5855 95.7604 22.2233 93.5528 22.2233C91.3452 22.2233 89.7263 21.5855 88.6471 20.31C87.5678 19.0345 87.0281 17.1703 87.0281 14.7175C87.0281 13.491 87.1753 12.4118 87.5187 11.4797C87.8621 10.5476 88.3037 9.76265 88.8923 9.1249C89.481 8.48715 90.1678 7.99658 90.9528 7.65317C91.7377 7.30977 92.6698 7.1626 93.6509 7.1626C95.8095 7.1626 97.4284 7.84941 98.5567 9.17396C99.685 10.4495 100.225 12.2646 100.225 14.6193Z" fill="black"/>
<path d="M109.497 19.4759C109.693 19.4759 109.987 19.4759 110.38 19.4759C110.772 19.4759 111.164 19.4268 111.655 19.3287V7.89829C111.655 7.70206 111.704 7.55489 111.753 7.50583C111.851 7.45677 111.949 7.40771 112.146 7.40771H114.255C114.451 7.40771 114.549 7.45677 114.648 7.50583C114.746 7.55489 114.795 7.70206 114.795 7.89829V19.7212C114.795 20.3589 114.648 20.8985 114.353 21.242C114.059 21.6344 113.617 21.8797 112.98 22.0269C112.734 22.0759 112.489 22.125 112.146 22.125C111.851 22.174 111.508 22.174 111.214 22.2231C110.87 22.2231 110.576 22.2722 110.281 22.2722C109.987 22.2722 109.693 22.2722 109.447 22.2722C108.221 22.2722 107.191 22.125 106.308 21.8797C105.474 21.6344 104.787 21.1929 104.247 20.6533C103.708 20.1136 103.315 19.3778 103.07 18.4457C102.825 17.5626 102.727 16.4343 102.727 15.2079V7.89829C102.727 7.70206 102.776 7.55489 102.825 7.50583C102.923 7.45677 103.021 7.40771 103.217 7.40771H105.327C105.523 7.40771 105.621 7.45677 105.719 7.50583C105.817 7.55489 105.817 7.70206 105.817 7.89829V15.2569C105.817 15.9928 105.866 16.5815 105.964 17.1211C106.062 17.6608 106.21 18.1023 106.504 18.4457C106.749 18.7891 107.142 19.0344 107.583 19.2306C108.123 19.3778 108.712 19.4759 109.497 19.4759Z" fill="black"/>
<path d="M127.206 21.5852C127.206 21.6833 127.108 21.7324 126.961 21.8305C126.323 22.0267 125.735 22.1739 125.097 22.1739C124.459 22.223 124.018 22.223 123.674 22.223C122.202 22.223 121.123 21.8796 120.534 21.2418C119.897 20.6041 119.602 19.6229 119.602 18.2984V9.90952H117.64C117.444 9.90952 117.346 9.86047 117.297 9.76235C117.248 9.66424 117.248 9.56612 117.248 9.41895V8.29062C117.248 8.14345 117.248 7.99628 117.346 7.94722C117.395 7.84911 117.493 7.80005 117.689 7.80005L119.75 7.30947L120.093 4.70942C120.142 4.51319 120.191 4.36601 120.289 4.31696C120.387 4.21884 120.534 4.16978 120.731 4.07167L122.301 3.53204C122.448 3.48298 122.546 3.53204 122.644 3.58109C122.742 3.63015 122.791 3.77732 122.791 3.97356V7.45665H125.686C125.882 7.45665 126.029 7.5057 126.078 7.60381C126.127 7.70193 126.127 7.80005 126.127 7.94722V9.468C126.127 9.61518 126.127 9.76235 126.078 9.8114C126.029 9.90952 125.931 9.90952 125.686 9.90952H122.791V17.9059C122.791 18.4946 122.938 18.8871 123.184 19.1323C123.478 19.3286 123.87 19.4758 124.459 19.4758C124.557 19.4758 124.704 19.4758 124.901 19.4758C125.097 19.4758 125.244 19.4758 125.44 19.4267C125.636 19.4267 125.833 19.3776 126.029 19.3776C126.225 19.3286 126.372 19.3286 126.519 19.3286C126.716 19.2795 126.814 19.2795 126.863 19.3286C126.912 19.3776 126.961 19.4758 126.961 19.5739L127.255 21.3399C127.206 21.389 127.206 21.4871 127.206 21.5852Z" fill="black"/>
<path fill-rule="evenodd" clip-rule="evenodd" d="M167 0H140.157C139.274 0 138.539 0.735868 138.539 1.66796V9.56623L131.572 14.8154L138.539 20.0646V27.7666C138.539 28.6987 139.274 29.4345 140.157 29.4345H167V21.9287H164.981C164.784 21.9287 164.686 21.8797 164.588 21.8306C164.49 21.7816 164.49 21.6344 164.49 21.4382V14.2758C164.49 12.804 164.245 11.6757 163.705 10.9398C163.165 10.204 162.233 9.86058 160.958 9.86058C160.467 9.86058 159.977 9.90963 159.388 10.0568C158.799 10.1549 158.309 10.3511 157.965 10.5474C158.162 11.087 158.309 11.6266 158.407 12.2153C158.505 12.8039 158.505 13.4415 158.505 14.1281V14.1286V21.4382C158.505 21.6344 158.456 21.7816 158.358 21.8306C158.26 21.8797 158.113 21.9287 157.916 21.9287H155.807C155.611 21.9287 155.513 21.8797 155.414 21.8306C155.316 21.7816 155.316 21.6344 155.316 21.4382V14.0795C155.316 13.4418 155.267 12.8531 155.169 12.3625C155.071 11.8719 154.875 11.3814 154.629 11.038C154.384 10.6946 153.992 10.4002 153.501 10.204C153.011 10.0077 152.422 9.90964 151.637 9.90964H151.195H151.195C150.999 9.90964 150.803 9.90964 150.607 9.95869C150.509 9.95869 150.411 9.97095 150.312 9.98322C150.214 9.99548 150.116 10.0077 150.018 10.0077C149.913 10.0077 149.822 10.0218 149.737 10.0349C149.664 10.0462 149.596 10.0568 149.527 10.0568V21.4872C149.527 21.6835 149.478 21.8306 149.429 21.8797C149.331 21.9287 149.233 21.9778 149.037 21.9778H146.927C146.731 21.9778 146.633 21.9287 146.535 21.8797C146.437 21.8306 146.437 21.6835 146.437 21.4872V9.76246V9.76221C146.437 9.41891 146.437 9.12465 146.486 8.87943C146.535 8.63414 146.633 8.38885 146.731 8.19262C146.878 7.99639 147.026 7.84922 147.271 7.70205C147.516 7.55487 147.81 7.45675 148.203 7.35864C148.319 7.35864 148.467 7.32792 148.644 7.29079C148.691 7.281 148.74 7.27076 148.792 7.26052C148.939 7.23599 149.086 7.22373 149.233 7.21147C149.38 7.1992 149.527 7.18694 149.675 7.16241C149.822 7.16241 149.981 7.15014 150.141 7.13788C150.3 7.12561 150.46 7.11335 150.607 7.11335C150.769 7.11335 150.931 7.09848 151.076 7.08512C151.195 7.07421 151.303 7.06429 151.392 7.06429C152.52 7.06429 153.452 7.16241 154.237 7.4077C155.022 7.60393 155.709 7.99639 156.297 8.43791C156.935 7.99639 157.671 7.70205 158.554 7.45676C159.437 7.21147 160.32 7.06429 161.301 7.06429C162.43 7.06429 163.411 7.21147 164.196 7.55487C164.981 7.89827 165.618 8.33979 166.158 8.92849C166.496 9.33396 166.787 9.80925 167 10.3383V0Z" fill="#00BAFF"/>
<rect x="140" width="42" height="29.45" rx="2" fill="#00BAFF"/>
<path d="M171 11.4793C171 8.34711 168.461 5.80811 165.329 5.80811C163.284 5.80811 161.498 6.89429 160.5 8.51756C159.502 6.89429 157.715 5.80811 155.67 5.80811C152.538 5.80811 150 8.34711 150 11.4793C150 13.1845 150.756 14.7101 151.947 15.7491L159.982 23.7856C160.12 23.9229 160.306 24 160.5 24C160.694 24 160.88 23.9229 161.017 23.7856L169.053 15.7491C170.244 14.7101 171 13.1845 171 11.4793Z" fill="white"/>
</svg>

<svg width="182" height="30" fill="none" xmlns="http://www.w3.org/2000/svg"><path d="M15.551 8.634h-.196l-1.423 3.729-2.404 6.083c-.196.49-.392.785-.588.932-.196.147-.49.245-.981.245H8.732c-.441 0-.785-.098-.98-.245-.197-.147-.393-.49-.54-.981l-2.404-5.838-1.472-3.68h-.147v12.412c0 .245-.05.442-.147.49a1.056 1.056 0 0 1-.491.099H.589a.98.98 0 0 1-.442-.098C.05 21.732 0 21.536 0 21.29V4.219c0-.589.098-.981.343-1.276.197-.294.638-.441 1.276-.441h1.128c.49 0 .834.098 1.08.245.245.147.441.49.637.981l3.238 8.095L9.37 16.09h.098l1.668-4.317 3.238-8.046c.196-.49.441-.834.687-.98.245-.148.637-.246 1.079-.246h1.03c.589 0 .981.147 1.227.392.245.246.343.687.343 1.227v17.12c0 .246-.05.442-.147.492-.098.049-.245.098-.49.098h-1.914a.979.979 0 0 1-.441-.098c-.099-.05-.148-.246-.148-.491l-.049-12.608zM28.503 9.811c-.491 0-.933.099-1.325.295a3.02 3.02 0 0 0-.981.785c-.295.343-.49.687-.638 1.128a6.42 6.42 0 0 0-.294 1.325h6.279c0-.491-.049-.932-.147-1.374a2.931 2.931 0 0 0-.49-1.128 1.964 1.964 0 0 0-.933-.736c-.343-.196-.834-.295-1.471-.295zm-.05-2.698c2.11 0 3.63.54 4.66 1.62.982 1.078 1.522 2.55 1.522 4.463 0 .491-.05.883-.148 1.178-.098.294-.245.588-.441.736-.196.196-.442.294-.687.392-.245.098-.54.098-.883.098h-7.26c0 .687.147 1.325.343 1.815.196.49.49.883.834 1.178.343.294.736.54 1.177.637.442.148.933.197 1.472.197.589 0 1.128-.05 1.717-.197.54-.147 1.03-.343 1.472-.54.294-.146.49-.097.588.148l.736 1.57c.148.294.05.49-.196.638a6.033 6.033 0 0 1-2.257.883c-.834.147-1.618.245-2.354.245-2.208 0-3.876-.589-5.053-1.815-1.178-1.178-1.717-3.09-1.717-5.69 0-1.227.147-2.307.49-3.239.344-.932.785-1.766 1.325-2.403.589-.638 1.275-1.178 2.06-1.472.785-.245 1.668-.442 2.6-.442zM40.276 14.913c0 1.668.344 2.895.981 3.581.638.687 1.57 1.03 2.748 1.03.392 0 .834-.048 1.324-.097.54-.099.932-.197 1.227-.295v-8.88a9.752 9.752 0 0 0-1.472-.294c-.393-.049-.785-.049-1.178-.049-1.079 0-1.962.393-2.649 1.178-.637.736-.98 2.011-.98 3.826zm-3.336 0c0-1.03.148-2.011.393-2.943.245-.932.638-1.766 1.177-2.453A6.43 6.43 0 0 1 40.57 7.8c.835-.442 1.865-.638 3.042-.638.344 0 .785 0 1.276.05.49.048 1.03.146 1.619.294v-5.2c0-.197.049-.344.147-.393a.98.98 0 0 1 .441-.098h2.11c.196 0 .294.049.392.098.098.05.098.196.098.393v18.298c0 .343-.245.638-.785.834-.54.245-1.128.392-1.815.49-.687.099-1.373.197-2.06.246-.687.049-1.177.049-1.472.049-1.226 0-2.257-.196-3.09-.54-.834-.343-1.521-.834-2.012-1.471-.54-.638-.883-1.423-1.128-2.306a11.33 11.33 0 0 1-.393-2.993zM58.035 14.864h5.25l-1.423-4.66-1.129-3.925h-.147l-1.128 3.827-1.423 4.758zm6.083 2.846h-6.917l-1.177 3.728c-.05.147-.147.294-.245.343-.099.099-.246.099-.491.099h-2.502c-.196 0-.343-.05-.392-.197-.05-.098-.05-.245 0-.392L58.28 3.826c.099-.294.197-.49.295-.637.098-.148.196-.295.343-.393a1.47 1.47 0 0 1 .49-.196c.197-.05.393-.05.639-.05h1.177c.54 0 .981.099 1.177.246.245.196.442.54.638 1.08l5.887 17.464c.049.147.049.294 0 .392-.05.098-.147.197-.344.197h-2.501a1.45 1.45 0 0 1-.491-.099c-.098-.049-.196-.147-.294-.343l-1.178-3.777zM81.288 14.668c0-1.619-.294-2.845-.932-3.63-.637-.785-1.471-1.178-2.55-1.178-.295 0-.688.05-1.227.098-.54.05-1.08.197-1.668.344v8.83c.441.147.883.246 1.373.295.491.049.884.049 1.276.049.54 0 1.08-.098 1.52-.246.442-.196.835-.441 1.178-.834.344-.392.589-.883.785-1.471.196-.638.245-1.374.245-2.257zm3.287-.147c0 1.128-.147 2.11-.392 3.041a6.788 6.788 0 0 1-1.227 2.453c-.54.687-1.275 1.227-2.158 1.62-.883.392-1.913.588-3.09.588-.933 0-1.865-.098-2.846-.196-.981-.148-1.864-.393-2.698-.785-.148-.098-.295-.147-.344-.246a.923.923 0 0 1-.098-.392V2.306c0-.197.05-.344.147-.393a.98.98 0 0 1 .442-.098h2.158c.197 0 .344.049.393.098.098.05.098.196.098.442l.049 5.396c.54-.147 1.08-.294 1.717-.393.638-.098 1.177-.098 1.668-.098 1.08 0 2.011.197 2.796.54a4.89 4.89 0 0 1 1.913 1.52c.491.688.884 1.473 1.129 2.355.245.785.343 1.816.343 2.846zM96.987 14.717c0-.686-.05-1.275-.147-1.864a4.94 4.94 0 0 0-.54-1.57c-.245-.441-.589-.784-.981-1.079-.442-.245-.981-.392-1.619-.392-.589 0-1.08.147-1.52.392-.442.245-.786.589-1.08 1.03-.294.442-.49.932-.638 1.521-.147.589-.196 1.227-.196 1.913 0 1.521.245 2.748.736 3.63.49.884 1.373 1.325 2.6 1.325.638 0 1.177-.147 1.619-.392.441-.246.785-.638 1.03-1.08.245-.441.441-.98.589-1.52.098-.638.147-1.276.147-1.914zm3.238-.098c0 2.453-.54 4.317-1.668 5.642-1.129 1.325-2.797 1.962-5.004 1.962-2.208 0-3.827-.637-4.906-1.913-1.08-1.275-1.619-3.14-1.619-5.592 0-1.227.147-2.306.49-3.238.344-.932.786-1.717 1.374-2.355a6.11 6.11 0 0 1 2.06-1.472c.786-.343 1.718-.49 2.699-.49 2.159 0 3.777.686 4.906 2.011 1.128 1.276 1.668 3.09 1.668 5.445zM109.497 19.476h.883c.392 0 .784-.05 1.275-.147V7.899c0-.197.049-.344.098-.393a.76.76 0 0 1 .393-.098h2.109c.196 0 .294.049.393.098.098.049.147.196.147.392v11.823c0 .638-.147 1.177-.442 1.521-.294.392-.736.638-1.373.785-.246.049-.491.098-.834.098-.295.049-.638.049-.932.098-.344 0-.638.05-.933.05h-.834c-1.226 0-2.256-.148-3.139-.393a4.825 4.825 0 0 1-2.061-1.227c-.539-.54-.932-1.275-1.177-2.207-.245-.883-.343-2.012-.343-3.238v-7.31c0-.196.049-.343.098-.392.098-.05.196-.098.392-.098h2.11c.196 0 .294.049.392.098.098.049.098.196.098.392v7.359c0 .736.049 1.324.147 1.864.098.54.246.981.54 1.325.245.343.638.588 1.079.785.54.147 1.129.245 1.914.245zM127.206 21.585c0 .098-.098.147-.245.245-.638.197-1.226.344-1.864.344-.638.049-1.079.049-1.423.049-1.472 0-2.551-.343-3.14-.981-.637-.638-.932-1.62-.932-2.944V9.91h-1.962c-.196 0-.294-.05-.343-.148-.049-.098-.049-.196-.049-.343V8.291c0-.148 0-.295.098-.344.049-.098.147-.147.343-.147l2.061-.49.343-2.6c.049-.197.098-.344.196-.393.098-.098.245-.147.442-.245l1.57-.54c.147-.049.245 0 .343.05.098.048.147.195.147.392v3.483h2.895c.196 0 .343.049.392.147.049.098.049.196.049.343v1.521c0 .147 0 .294-.049.343-.049.099-.147.099-.392.099h-2.895v7.996c0 .589.147.981.393 1.226.294.197.686.344 1.275.344h.442c.196 0 .343 0 .539-.05.196 0 .393-.048.589-.048.196-.05.343-.05.49-.05.197-.049.295-.049.344 0a.375.375 0 0 1 .098.246l.294 1.766c-.049.049-.049.147-.049.245z" fill="#000"/><path fill-rule="evenodd" clip-rule="evenodd" d="M167 0h-26.843c-.883 0-1.618.736-1.618 1.668v7.898l-6.967 5.25 6.967 5.249v7.702c0 .932.735 1.668 1.618 1.668H167v-7.506h-2.019a.76.76 0 0 1-.393-.098c-.098-.05-.098-.197-.098-.393v-7.162c0-1.472-.245-2.6-.785-3.336-.54-.736-1.472-1.08-2.747-1.08a6.24 6.24 0 0 0-1.57.197 4.363 4.363 0 0 0-1.423.49c.197.54.344 1.08.442 1.668.098.589.098 1.226.098 1.913v7.31c0 .196-.049.344-.147.393a.978.978 0 0 1-.442.098h-2.109c-.196 0-.294-.05-.393-.098-.098-.05-.098-.197-.098-.393V14.08c0-.638-.049-1.227-.147-1.717-.098-.491-.294-.982-.54-1.325-.245-.343-.637-.638-1.128-.834-.49-.196-1.079-.294-1.864-.294h-.442c-.196 0-.392 0-.588.049-.098 0-.196.012-.295.024a2.377 2.377 0 0 1-.294.025c-.105 0-.196.014-.281.027-.073.011-.141.022-.21.022v11.43c0 .197-.049.344-.098.393-.098.049-.196.098-.392.098h-2.11c-.196 0-.294-.05-.392-.098-.098-.05-.098-.197-.098-.393V9.762c0-.343 0-.637.049-.883.049-.245.147-.49.245-.686.147-.197.295-.344.54-.49.245-.148.539-.246.932-.344.116 0 .264-.031.441-.068l.148-.03c.147-.025.294-.037.441-.05.147-.012.294-.024.442-.049.147 0 .306-.012.466-.024.159-.012.319-.025.466-.025.162 0 .324-.015.469-.028.119-.01.227-.02.316-.02 1.128 0 2.06.097 2.845.343.785.196 1.472.588 2.06 1.03.638-.442 1.374-.736 2.257-.981a10.045 10.045 0 0 1 2.747-.393c1.129 0 2.11.147 2.895.49.785.344 1.422.786 1.962 1.374.338.406.629.881.842 1.41V0z" fill="#00BAFF"/><rect x="140" width="42" height="29.45" rx="2" fill="#00BAFF"/><path d="M171 11.48a5.671 5.671 0 0 0-5.671-5.672 5.661 5.661 0 0 0-4.829 2.71 5.663 5.663 0 0 0-4.83-2.71A5.67 5.67 0 0 0 150 11.48a5.65 5.65 0 0 0 1.947 4.27l8.035 8.037a.734.734 0 0 0 1.035 0l8.036-8.037A5.65 5.65 0 0 0 171 11.48z" fill="#fff"/></svg>
